newicons/line_rangers.svg

<?xml version="1.0" encoding="UTF-8"?><svg id="a" xmlns="http://www.w3.org/2000/svg" viewBox="0 0 48 48"><defs><style>.b{fill:none;stroke:#fff;stroke-linecap:round;stroke-linejoin:round;}</style></defs><path class="b" d="M24.203,38.12c-.333,1.269-.424,1.982-.39,2.955M25.903,41.576c.406,1.103,1.967.609,2.565.028M16.666,32.975l-.139.127M17.134,33.758l-.139.127M17.719,34.454l-.138.126M18.272,34.902l-.061.177M23.038,34.855l-.02.177M22.221,35.092l-.02.177M21.314,35.309l-.02.177M19.558,35.072c-.7234,0-1.304.4718-1.297,1.054.0043.2711.1383.5315.374.727-.1904.1635-.2951.379-.293.603.0061.4888.5088.8851,1.1229.885h0c.614,0,1.1069-.3962,1.101-.885-.0031-.1746-.0709-.3451-.195-.49.3249-.199.5136-.5099.51-.84-.0072-.5822-.5995-1.0541-1.3229-1.054h-.0001M10.0202,40.6309l-2.0928,1.5295M9.311,40.038c.59.608,1.512,1.147,2.602,1.557M38.913,31.011l.056-.195M37.639,30.37l.055-.195M37.05,33.152c-.476-.28-.65-1.201.006-1.646.34-.231.757-.192,1.29.11.549.312,1.13.74.414,1.276-.033.647-.542.79-1.01.593-.203-.085-.442-.182-.7-.333M34.879,38.426l-4.823-1.199c-.635,3.615,2.266,5.644,5.185,3.01M27.465,40.237c-.3992-.7209-.5854-1.5404-.537-2.363M26.928,37.874c.028-.465.13-.913.297-1.334M27.225,36.54c.5-1.266,1.58-2.288,2.954-2.814M30.168,33.562c0-2.825,2.409-5.115,5.38-5.115s5.38,2.29,5.38,5.115h0c0,2.045-1.282,3.893-3.258,4.7M30.17,33.726l-.002-.164-4.46-.265c-.477,1.395.137,2.442,1.517,3.243M37.671,38.256c-.195,2.007-2.297,3.491-4.096,4.244M30.053,42.49c-1.127-.462-2.043-1.261-2.588-2.252-.69.236-.94.98-1.716,1.278-1.641.633-1.53-1.48-.492-2.464.338-.32,1.02-.771,1.671-1.178M26.665,22.634c.0147.3918-.291.7214-.6829.7361-.3918.0147-.7214-.291-.7361-.6829-.0007-.0177-.0007-.0355,0-.0533,0-.3921.3179-.71.71-.71s.71.3179.71.71h0M23.996,22.141c0,.3921-.3179.71-.71.71s-.71-.3179-.71-.71.3179-.71.71-.71.71.3179.71.71M24.342,25.199c.462-.236.977-.654,1.046-1.115M24.091,26.76l-1.338,1.087M23.757,23.68c-.032.286.136,1.11.585,1.519l-.25,1.56.529.865M24.353,23.389l.272.05c1.088.206,1.718,1.685,1.41,3.319l-.076.404c-.307,1.634-1.431,2.784-2.52,2.579l-.271-.051c-1.089-.205-1.718-1.685-1.411-3.318l.076-.405c.307-1.633,1.431-2.783,2.52-2.578M25.686,13.899c.192-.91.77-1.61,1.575-1.904,1.474-.54,3.272.411,4.016,2.123.429.988.427,2.064-.005,2.899M14.904,15.075l-.014-.04c-.645-1.815.138-3.75,1.749-4.322,1.61-.572,3.438.437,4.083,2.252h0c.05.14.0917.2827.125.428M24.003,33.893c.5418-.0526,1.08-.1367,1.612-.252M26.705,33.359c1.487-.452,2.85-1.144,4.007-2.04M30.712,31.319l.012-.009M32.774,29.2l.024-.034M32.798,29.166c.7032-.9828,1.2036-2.0958,1.472-3.274M25.7,13.904c-1.5784-.4454-3.2194-.6272-4.857-.538M14.897,15.064c-1.627.925-2.935,2.167-3.825,3.61M11.072,18.674c-.3967.6417-.7112,1.3308-.936,2.051h0c-.1689.5433-.2835,1.1021-.342,1.668M15.151,24.263c-1.08-1.174-2.705-1.921-4.523-1.921-.9995-.0034-1.9857.2296-2.878.68-.555-.828-1.228-1.304-2.239-1.696M5.504,20.72c1.583-.982,3.594-1.67,5.568-2.045M11.246,32.961c2.958-.28,5.263-2.544,5.263-5.295,0-1.295-.51-2.48-1.358-3.404.277-3.264,1.593-6.07,4.396-8.22,2.364,1.067,3.898,2.735,5.52,4.21,1.421-1.093,3.06-2.32,3.93-3.067,3.042,3.236,2.486,6.823,2.174,10.34,1.067-.476,2.173-.876,3.1-1.633.695-3.123-.401-6.409-2.999-8.877M14.588,31.596c.231.154.929.267.71.442-1.62,1.297-3.197,2.701-4.807,4.025M10.491,36.063c-1.602,1.319-3.0594,2.4569-4.8044,3.4329M22.109,40.082c-.1146.7966-.1631,1.6014-.145,2.406M8.474,32.622c.8877.316,1.8342.4321,2.772.34-.586.734-1.649,2.23-2.68,3.039.44-1.268.197-2.33-.092-3.379M7.75,23.022c-.9211.4607-1.699,1.1639-2.25,2.034M5.506,30.286c.66,1.055,1.708,1.887,2.968,2.336-.477,1.539-1.787,2.623-2.97,3.777M15.298,32.039c1.1701.6762,2.4313,1.1807,3.745,1.498,1.673.41,3.355.515,4.96.357-.922,2.083-1.606,4.149-1.894,6.188-1.098.508-1.986,1.185-3.48,1.131-4.837-.172-6.753-2.575-8.138-5.15"/><rect class="b" x="5.5" y="5.5" width="37" height="37" rx="4" ry="4"/></svg>

<svg xmlns="http://www.w3.org/2000/svg" xml:space="preserve" width="48" height="48"><path fill="none" stroke="#fff" stroke-linecap="round" stroke-linejoin="round" d="M24.195 38.132c-.333 1.269-.424 1.982-.39 2.955m2.09.501c.406 1.103 1.967.609 2.565.028m-11.802-8.629-.139.127m.607.656-.139.127m.724.569-.138.126m.691.322-.061.177m4.827-.224-.02.177m-.797.06-.02.177m-.887.04-.02.177m-1.736-.414a1.31 1.054 1.288 0 0-1.297 1.054 1.31 1.054 1.288 0 0 .374.727 1.112.885 1.22 0 0-.293.603 1.112.885 1.22 0 0 1.123.885 1.112.885 1.22 0 0 1.101-.885 1.112.885 1.22 0 0-.195-.49 1.31 1.054 1.288 0 0 .51-.84 1.31 1.054 1.288 0 0-1.323-1.054M9.934 40.7l-1.538 1.124m.907-1.774c.59.608 1.512 1.147 2.602 1.557m27-10.584.056-.195m-1.33-.446.055-.195m-.644 2.977c-.476-.28-.65-1.201.006-1.646.34-.231.757-.192 1.29.11.549.312 1.13.74.414 1.276-.033.647-.542.79-1.01.593-.203-.085-.442-.182-.7-.333m-2.171 5.274-4.823-1.199c-.635 3.615 2.266 5.644 5.185 3.01m-7.776 0a4.35 4.35 0 0 1-.537-2.363m0 0c.028-.465.13-.913.297-1.334m0 0c.5-1.266 1.58-2.288 2.954-2.814m-.011-.164c0-2.825 2.409-5.115 5.38-5.115s5.38 2.29 5.38 5.115v0c0 2.045-1.282 3.893-3.258 4.7m-7.5-4.536-.002-.164-4.46-.265c-.477 1.395.137 2.442 1.517 3.243m10.446 1.716c-.195 2.007-2.297 3.491-4.096 4.244m-3.522-.01c-1.127-.462-2.043-1.261-2.588-2.252-.69.236-.94.98-1.716 1.278-1.641.633-1.53-1.48-.492-2.464.338-.32 1.02-.771 1.671-1.178m-.263-15.24a.71.71 0 1 1-1.419 0 .71.71 0 0 1 1.42 0m-2.67-.493a.71.71 0 1 1-1.42 0 .71.71 0 0 1 1.42 0m.346 3.058c.462-.236.977-.654 1.046-1.115m-1.297 2.676-1.338 1.087m1.004-4.167c-.032.286.136 1.11.585 1.519l-.25 1.56.529.865m-.268-4.235.272.05c1.088.206 1.718 1.685 1.41 3.319l-.076.404c-.307 1.634-1.431 2.784-2.52 2.579l-.271-.051c-1.089-.205-1.718-1.685-1.411-3.318l.076-.405c.307-1.633 1.431-2.783 2.52-2.578m1.333-9.49c.192-.91.77-1.61 1.575-1.904 1.474-.54 3.272.411 4.016 2.123.429.988.427 2.064-.005 2.899m-16.368-1.942-.014-.04c-.645-1.815.138-3.75 1.749-4.322 1.61-.572 3.438.437 4.083 2.252v0q.075.21.125.428m3.156 20.5a14 14 0 0 0 1.612-.252m1.09-.282c1.487-.452 2.85-1.144 4.007-2.04m0 0 .012-.009m2.05-2.11.024-.034m0 0a9.1 9.1 0 0 0 1.472-3.274m-8.57-11.988a14.9 14.9 0 0 0-4.857-.538m-5.946 1.698c-1.627.925-2.935 2.167-3.825 3.61m0 0a9 9 0 0 0-.936 2.051v0a8.6 8.6 0 0 0-.342 1.668m5.357 1.87c-1.08-1.174-2.705-1.921-4.523-1.921a6.34 6.34 0 0 0-2.878.68c-.555-.828-1.228-1.304-2.239-1.696m-.007-.606c1.583-.982 3.594-1.67 5.568-2.045m.174 14.286c2.958-.28 5.263-2.544 5.263-5.295 0-1.295-.51-2.48-1.358-3.404.277-3.264 1.593-6.07 4.396-8.22 2.364 1.067 3.898 2.735 5.52 4.21 1.421-1.093 3.06-2.32 3.93-3.067 3.042 3.236 2.486 6.823 2.174 10.34 1.067-.476 2.173-.876 3.1-1.633.695-3.123-.401-6.409-2.999-8.877M14.58 31.608c.231.154.929.267.71.442-1.62 1.297-3.197 2.701-4.807 4.025m0 0c-1.602 1.319-3.238 2.558-4.983 3.534m16.601.485a14.6 14.6 0 0 0-.145 2.406m-13.49-9.866a6.4 6.4 0 0 0 2.772.34c-.586.734-1.649 2.23-2.68 3.039.44-1.268.197-2.33-.092-3.379m-.724-9.6a5.66 5.66 0 0 0-2.25 2.034m.006 5.23c.66 1.055 1.708 1.887 2.968 2.336-.477 1.539-1.787 2.623-2.97 3.777m9.794-4.36a14.1 14.1 0 0 0 3.745 1.498c1.673.41 3.355.515 4.96.357-.922 2.083-1.606 4.149-1.894 6.188-1.098.508-1.986 1.185-3.48 1.131-4.837-.172-6.753-2.575-8.138-5.15M40.499 5.5h-33a2 2 0 0 0-2 2v33a2 2 0 0 0 2 2h33a2 2 0 0 0 2-2v-33a2 2 0 0 0-2-2" style="-inkscape-stroke:none"/></svg>
